arb/images/icons/4.svg

<svg width="104" height="100" viewBox="0 0 104 100" fill="none" xmlns="http://www.w3.org/2000/svg">
<g clip-path="url(#clip0)">
<path d="M55.1938 57.5863C55.1938 56.344 54.7501 55.1018 53.7741 54.1258C52.798 53.1497 51.5558 52.7061 50.3136 52.7061C49.0713 52.7061 47.8291 53.1497 46.853 54.1258C45.877 55.1018 45.4333 56.344 45.4333 57.5863C45.4333 58.8285 45.877 60.0707 46.853 61.0468C47.8291 62.0228 49.0713 62.4665 50.3136 62.4665H59.8078" stroke="#E63946" stroke-width="3" stroke-miterlimit="10" stroke-linecap="round" stroke-linejoin="round"/>
<path d="M34.5195 72.582L27.5984 79.5031C26.2675 80.7453 24.5816 81.4551 22.7182 81.4551H14.0226C11.2719 81.4551 8.78745 83.141 7.72267 85.6255L2.3988 98.2253H101.423L96.0989 85.6255C95.0341 83.0523 92.5496 81.4551 89.799 81.4551H81.1033C79.3287 81.4551 77.5541 80.7453 76.2231 79.5031L69.3021 72.582" stroke="#E63946" stroke-width="3" stroke-miterlimit="10" stroke-linecap="round" stroke-linejoin="round"/>
<path d="M56.2586 71.0735C54.8389 71.7834 53.4192 72.1383 51.9108 72.1383C50.4024 72.1383 48.9827 71.7834 47.563 71.0735C46.1433 70.3637 44.8123 69.3876 43.4813 68.1454C42.1504 66.9032 40.9969 65.3947 39.8434 63.7088C38.6898 62.023 37.6251 60.2483 36.649 58.2962C35.673 56.3442 34.7857 54.3921 33.9871 52.3513C33.1885 50.3104 32.5674 48.2696 32.035 46.2288C31.5026 44.188 31.059 42.3246 30.7928 40.4613C30.5266 38.6867 30.3491 37.0008 30.3491 35.4923C30.3491 33.9839 30.5266 32.5642 30.7928 31.1445C31.059 29.7248 31.5026 28.3938 32.035 27.0629C32.5674 25.7319 33.2772 24.5784 33.9871 23.4249C34.7857 22.2714 35.673 21.2066 36.649 20.2306C37.6251 19.2545 38.6898 18.3672 39.8434 17.5686C40.9969 16.7701 42.2391 16.1489 43.4813 15.6166C44.8123 15.0842 46.1433 14.6405 47.563 14.3743C48.9827 14.1081 50.4024 13.9307 51.9108 13.9307C53.4192 13.9307 54.8389 14.1081 56.2586 14.3743C57.6783 14.6405 59.0093 15.0842 60.3403 15.6166C61.6712 16.1489 62.8247 16.8588 63.9782 17.5686C65.1317 18.2785 66.1965 19.2545 67.1725 20.2306C68.1486 21.2066 69.0359 22.2714 69.8345 23.4249" stroke="#E63946" stroke-width="3" stroke-miterlimit="10" stroke-linecap="round" stroke-linejoin="round"/>
<path d="M80.3935 46.584V55.6346C80.3935 59.45 77.2879 62.4669 73.5612 62.4669H58.1219" stroke="#E63946" stroke-width="3" stroke-miterlimit="10" stroke-linecap="round" stroke-linejoin="round"/>
<path d="M23.0731 28.8374C23.9604 13.7531 36.3828 1.77441 51.7333 1.77441C66.995 1.77441 79.5061 13.7531 80.3934 28.8374" stroke="#E63946" stroke-width="3" stroke-miterlimit="10" stroke-linecap="round" stroke-linejoin="round"/>
<path d="M31.7687 46.584H21.0323C18.1929 46.584 15.8859 44.277 15.8859 41.4376V33.8954C15.8859 31.056 18.1929 28.749 21.0323 28.749H31.5025" stroke="#E63946" stroke-width="3" stroke-miterlimit="10" stroke-linecap="round" stroke-linejoin="round"/>
<path d="M71.609 28.8379H83.2328C86.0722 28.8379 88.3792 31.1449 88.3792 33.9843V41.5264C88.3792 44.3658 86.0722 46.6728 83.2328 46.6728H71.609V28.8379Z" stroke="#E63946" stroke-width="3" stroke-miterlimit="10" stroke-linecap="round" stroke-linejoin="round"/>
</g>
<defs>
<clipPath id="clip0">
<rect width="102.573" height="100" fill="white" transform="translate(0.624146)"/>
</clipPath>
</defs>
</svg>

<svg width="104" height="100" fill="none" xmlns="http://www.w3.org/2000/svg"><g clip-path="url(#clip0)" stroke="#E63946" stroke-width="3" stroke-miterlimit="10" stroke-linecap="round" stroke-linejoin="round"><path d="M55.194 57.586a4.83 4.83 0 00-1.42-3.46 4.83 4.83 0 00-3.46-1.42 4.83 4.83 0 00-3.461 1.42 4.83 4.83 0 00-1.42 3.46 4.83 4.83 0 001.42 3.46 4.83 4.83 0 003.46 1.42h9.495M34.52 72.582l-6.922 6.921c-1.33 1.242-3.016 1.952-4.88 1.952h-8.695c-2.751 0-5.236 1.686-6.3 4.17l-5.324 12.6h99.024l-5.324-12.6c-1.065-2.573-3.55-4.17-6.3-4.17h-8.696c-1.774 0-3.549-.71-4.88-1.952l-6.92-6.921"/><path d="M56.259 71.073c-1.42.71-2.84 1.065-4.348 1.065-1.509 0-2.928-.355-4.348-1.065s-2.75-1.685-4.082-2.928c-1.33-1.242-2.484-2.75-3.638-4.436a45.726 45.726 0 01-3.194-5.413 71.392 71.392 0 01-2.662-5.945c-.799-2.04-1.42-4.081-1.952-6.122-.532-2.041-.976-3.904-1.242-5.768-.266-1.774-.444-3.46-.444-4.969 0-1.508.178-2.928.444-4.347.266-1.42.71-2.751 1.242-4.082s1.242-2.485 1.952-3.638a23.107 23.107 0 012.662-3.194 23.101 23.101 0 013.194-2.662c1.154-.799 2.396-1.42 3.638-1.952 1.331-.533 2.662-.977 4.082-1.243 1.42-.266 2.84-.443 4.348-.443s2.928.177 4.348.443 2.75.71 4.081 1.243c1.331.532 2.485 1.242 3.638 1.952 1.154.71 2.218 1.686 3.194 2.662a23.1 23.1 0 012.663 3.194"/><path d="M80.394 46.584v9.05c0 3.816-3.106 6.833-6.833 6.833h-15.44m-35.048-33.63c.887-15.084 13.31-27.063 28.66-27.063 15.262 0 27.773 11.98 28.66 27.063"/><path d="M31.769 46.584H21.032a5.15 5.15 0 01-5.146-5.146v-7.543a5.15 5.15 0 015.146-5.146h10.47m40.107.089h11.624a5.15 5.15 0 015.146 5.146v7.542a5.15 5.15 0 01-5.146 5.147H71.609V28.838z"/></g><defs><clipPath id="clip0"><path fill="#fff" transform="translate(.624)" d="M0 0h102.573v100H0z"/></clipPath></defs></svg>
